X: 364
T: The Ash Grove
B: jims roots
M:3/4
L:1/8
Q: 1/4=100
K:G
V:1 
%Q:282
x D2 |: "G"G2 B2 dc | "Em"B2 G2 G2 | "Am"AB cB AG | "D7"F2 D2 D2 | "G"GA BA GF |
"C"E2 C2 E2 | "G"D2 G2 "D7"F2 |1 "G"G4 D2 :|2 "G"G4 Bc || d2 Bc de | d2 c2 B2 |
"Am"c2 AB cd | "D7"c2 B2 A2 | "G"B2 GA Bc | "Em"B2 A2 G2 | "D"F2 d2 "A7"^c2 |
"D"d4 D2 | "G"G2 B2 dc | "Em"B2 G2 G2 | "Am"AB cB AG | "D7"F2 D2 D2 | "G"GA BA GF |
"C"E2 C2 E2 | "G"D2 G2 "D7"F2 | "G"G6 |]
% abcbook-tune_id 6298c2458c9ce08c21b1a17e


% abcbook-boost 0
% abcbook-tablature 
% abcbook-transpose 
% abcbook-lastupdated 1654178373210
% abcbook-soundfonts 
% abcbook-repeats 1


